**kern	**kern	**kern	**kern
*staff3	*staff4	*staff1	*staff2
*clefF4	*clefF4	*clefG2	*clefG2
*k[f#c#]	*k[f#c#]	*k[f#c#]	*k[f#c#]
*M2/4	*M2/4	*M2/4	*M2/4
*D:	*D:	*D:	*D:
=-	=-	=-	=-
2r	8F#L	(8aL	2r
.	8AJ	8dd'J)	.
.	8DL	(8ddL	.
.	8AJ	8ff#'J)	.
=444	=444	=444	=444
2r	8C#L	(8ff#L	2r
.	8AJ	8gg'J)	.
.	8GGL	(8ggL	.
.	8AJ	8ccc#'J)	.
=445	=445	=445	=445
2r	8FF#L	(8ccc#L	2r
.	8AJ	8ddd'J)	.
.	8DL	(8dddL	.
.	8AJ	8aa'J)	.
=446	=446	=446	=446
2r	8C#L	(8aaL	2r
.	8AJ	8gg'J)	.
.	8GL	(8ggL	.
.	8AJ	8ee'J)	.
=447	=447	=447	=447
2r	8F#L	(8eeL	2r
.	8AJ	8dd'J)	.
.	8DL	(8ddL	.
.	8AJ	8a'J)	.
=448	=448	=448	=448
2r	8C#L	(8aL	2r
.	8AJ	8g'J)	.
.	8AAL 8G	(8gL	.
.	8AJ	8e'J)	.
=449	=449	=449	=449
2r	8DL 8F#	(8eL	2r
.	8AJ	8d'J)	.
.	8AAL 8G	(8f#L	.
.	8AJ	8e'J)	.
=450	=450	=450	=450
2r	8D'L	4d'	2r
.	8DDJ	.	.
.	8DDL	4r	.
.	8DDJ	.	.
=451:|!	=451:|!	=451:|!	=451:|!
*-	*-	*-	*-
